assets/svgs/msa-sport-logo.svg

<?xml version="1.0" encoding="UTF-8"?>
<svg width="230px" height="42px" viewBox="0 0 230 42" version="1.1" xmlns="http://www.w3.org/2000/svg" xmlns:xlink="http://www.w3.org/1999/xlink">
    <!-- Generator: Sketch 64 (93537) - https://sketch.com -->
    <title>Slice 1</title>
    <desc>Created with Sketch.</desc>
    <g id="Page-1" stroke="none" stroke-width="1" fill="none" fill-rule="evenodd">
        <g id="msa-logo">
            <path d="M98.073,42 L101,42 L71.895,0 L0,0 L0,2.464 L70.676,2.464 L98.073,42 M23.248,34 L23.248,21.967 L19.07,30.739 L17.032,30.739 L12.752,21.967 L12.752,34 L10,34 L10,16 L12.752,16 L18.052,27.2 L23.248,16 L26,16 L26,34 L23.248,34" id="Shape" fill="#FFFFFE"></path>
            <path d="M130.814551,35.5748675 C127.923529,35.5748675 125.830031,34.9057149 124,33.0406302 L125.951084,31.1185963 C127.249885,32.4109921 129.043273,33.0803955 130.871517,32.9552064 C133.385139,32.9552064 134.844892,31.8731725 134.844892,30.0080878 C134.894643,29.268363 134.625055,28.5427651 134.104334,28.0148675 C133.510195,27.5011054 132.753606,27.2136865 131.968111,27.203342 L129.696594,26.883003 C128.34979,26.7528323 127.075077,26.2137853 126.043653,25.3382573 C125.061335,24.3734846 124.542391,23.0324083 124.619505,21.6579183 C124.619505,18.3050369 127.047678,16.0128336 131.028173,16.0128336 C133.237772,15.8879743 135.401264,16.678446 137.009598,18.1982573 L135.143963,20.0419861 C134.008598,18.9929914 132.492666,18.4552384 130.949845,18.5541895 C128.678328,18.5541895 127.432198,19.8497827 127.432198,21.5511386 C127.394071,22.2226154 127.654706,22.8766158 128.144272,23.3379183 C128.760901,23.8253482 129.500095,24.1332549 130.280495,24.2277488 L132.466563,24.5552064 C133.783913,24.6454643 135.040589,25.1430111 136.062539,25.9789353 C137.143559,26.9999002 137.719326,28.4454026 137.636223,29.9297827 C137.743034,33.4677488 134.816409,35.5748675 130.814551,35.5748675 Z M151.656966,27.84402 L147.277709,27.84402 L147.277709,35.4182573 L144.358204,35.4182573 L144.358204,16.1623251 L151.656966,16.1623251 C155.416718,16.1623251 157.823529,18.6538505 157.823529,22.0067319 C157.823529,25.3596132 155.416718,27.84402 151.656966,27.84402 Z M151.50031,18.7606302 L147.277709,18.7606302 L147.277709,25.1674098 L151.50031,25.1674098 C153.522601,25.1674098 154.904025,24.0070708 154.904025,21.9782573 C154.904025,19.9494437 153.522601,18.7606302 151.50031,18.7606302 Z M175.404644,33.524698 C172.575442,36.2595469 168.086787,36.2595469 165.257585,33.524698 C163.370588,31.6311386 163.391945,29.4955454 163.391945,25.7938505 C163.391945,22.0921556 163.391945,19.9494437 165.257585,18.0558844 C168.084867,15.3190497 172.573523,15.3159007 175.404644,18.0487658 C177.298762,19.9423251 177.241796,22.0779183 177.241796,25.7867319 C177.241796,29.4955454 177.263158,31.6311386 175.404644,33.524698 Z M173.182972,19.8141895 C172.42304,19.0538912 171.391997,18.6267104 170.316873,18.6267104 C169.241749,18.6267104 168.210706,19.0538912 167.450774,19.8141895 C166.503715,20.8392742 166.311455,21.9497827 166.311455,25.7938505 C166.311455,29.6379183 166.503715,30.7413081 167.450774,31.7663929 C168.210706,32.5266912 169.241749,32.953872 170.316873,32.953872 C171.391997,32.953872 172.42304,32.5266912 173.182972,31.7663929 C174.130031,30.7413081 174.322291,29.6307997 174.322291,25.7938505 C174.322291,21.9569014 174.094427,20.8392742 173.147368,19.8141895 L173.182972,19.8141895 Z M194.858514,35.4182573 L190.79969,27.303003 L187.146749,27.303003 L187.146749,35.4182573 L184.227245,35.4182573 L184.227245,16.1623251 L191.689783,16.1623251 C195.342724,16.1623251 197.671207,18.5185963 197.671207,21.7860539 C197.767726,24.1869327 196.160095,26.3238561 193.826006,26.8972403 L198.262229,35.4396132 L194.858514,35.4182573 Z M191.476161,18.7606302 L187.146749,18.7606302 L187.146749,24.7901217 L191.476161,24.7901217 C193.420124,24.7901217 194.744582,23.6796132 194.744582,21.7860539 C194.744582,19.8924946 193.420124,18.7606302 191.476161,18.7606302 Z M211.150774,18.7606302 L211.150774,35.4182573 L208.231269,35.4182573 L208.231269,18.7606302 L202.926316,18.7606302 L202.926316,16.1623251 L216.455728,16.1623251 L216.455728,18.7606302 L211.150774,18.7606302 Z" id="Shape" fill="#FFFFFF" fill-rule="nonzero"></path>
            <path d="M37.45,35 C34.71,35 32.742,34.344 31,32.533 L32.843,30.671 C34.173,32.035 35.633,32.454 37.501,32.454 C39.881,32.454 41.261,31.405 41.261,29.594 C41.261,28.781 41.031,28.098 40.547,27.653 C40.084,27.207 39.624,27.023 38.55,26.866 L36.4,26.55 C34.916,26.34 33.739,25.815 32.944,25.055 C32.049,24.188 31.616,23.007 31.616,21.485 C31.616,18.232 33.919,16 37.704,16 C40.111,16 41.799,16.63 43.359,18.127 L41.595,19.911 C40.469,18.809 39.163,18.467 37.628,18.467 C35.478,18.467 34.303,19.727 34.303,21.38 C34.303,22.062 34.505,22.666 34.993,23.113 C35.453,23.533 36.195,23.847 37.039,23.978 L39.112,24.294 C40.802,24.557 41.748,24.975 42.516,25.684 C43.513,26.575 44,27.915 44,29.514 C44,32.955 41.261,35 37.45,35 M58.065,20.07 L55.149,28.06 L60.902,28.06 L58.065,20.07 Z M62.979,34 L61.692,30.386 L54.308,30.386 L53.02,34 L50,34 L56.856,16 L59.142,16 L66,34 L62.98,34 L62.979,34 Z M230,0 L111,0 L112.62,2 L229.98,2 L230,1.975 L230,0" id="Shape" fill="#FFFFFE"></path>
        </g>
    </g>
</svg>

<svg width="230" height="42" xmlns="http://www.w3.org/2000/svg"><g fill="none" fill-rule="evenodd"><path d="M98.073 42H101L71.895 0H0v2.464h70.676L98.073 42m-74.825-8V21.967l-4.178 8.772h-2.038l-4.28-8.772V34H10V16h2.752l5.3 11.2L23.248 16H26v18h-2.752" fill="#FFFFFE"/><path d="M130.815 35.575c-2.891 0-4.985-.67-6.815-2.534l1.951-1.922a6.36 6.36 0 004.92 1.836c2.514 0 3.974-1.082 3.974-2.947a2.59 2.59 0 00-.74-1.993 3.333 3.333 0 00-2.137-.812l-2.271-.32a6.63 6.63 0 01-3.653-1.545 4.783 4.783 0 01-1.424-3.68c0-3.353 2.428-5.645 6.408-5.645a8.048 8.048 0 015.982 2.185l-1.866 1.844a5.648 5.648 0 00-4.194-1.488c-2.272 0-3.518 1.296-3.518 2.997a2.278 2.278 0 00.712 1.787 4.273 4.273 0 002.136.89l2.187.327a6.367 6.367 0 013.596 1.424 5.046 5.046 0 011.573 3.95c.107 3.539-2.82 5.646-6.821 5.646zm20.842-7.731h-4.38v7.574h-2.919V16.162h7.299c3.76 0 6.167 2.492 6.167 5.845 0 3.353-2.407 5.837-6.167 5.837zm-.157-9.083h-4.222v6.406h4.222c2.023 0 3.404-1.16 3.404-3.189s-1.381-3.217-3.404-3.217zm23.905 14.764a7.3 7.3 0 01-10.147 0c-1.887-1.894-1.866-4.03-1.866-7.731 0-3.702 0-5.845 1.866-7.738a7.3 7.3 0 0110.147-.007c1.894 1.893 1.837 4.029 1.837 7.738 0 3.709.021 5.844-1.837 7.738zm-2.222-13.71a4.052 4.052 0 00-5.732 0c-.947 1.024-1.14 2.135-1.14 5.979 0 3.844.193 4.947 1.14 5.972a4.052 4.052 0 005.732 0c.947-1.025 1.14-2.135 1.14-5.972 0-3.837-.229-4.955-1.176-5.98h.036zm21.676 15.603l-4.06-8.115h-3.652v8.115h-2.92V16.162h7.463c3.653 0 5.981 2.357 5.981 5.624a5.054 5.054 0 01-3.845 5.111l4.436 8.543-3.403-.022zm-3.383-16.657h-4.33v6.03h4.33c1.944 0 3.269-1.111 3.269-3.005s-1.325-3.025-3.269-3.025zm19.675 0v16.657h-2.92V18.761h-5.305v-2.599h13.53v2.599h-5.305z" fill="#FFF" fill-rule="nonzero"/><path d="M37.45 35c-2.74 0-4.708-.656-6.45-2.467l1.843-1.862c1.33 1.364 2.79 1.783 4.658 1.783 2.38 0 3.76-1.049 3.76-2.86 0-.813-.23-1.496-.714-1.941-.463-.446-.923-.63-1.997-.787l-2.15-.316c-1.484-.21-2.661-.735-3.456-1.495-.895-.867-1.328-2.048-1.328-3.57 0-3.253 2.303-5.485 6.088-5.485 2.407 0 4.095.63 5.655 2.127l-1.764 1.784c-1.126-1.102-2.432-1.444-3.967-1.444-2.15 0-3.325 1.26-3.325 2.913 0 .682.202 1.286.69 1.733.46.42 1.202.734 2.046.865l2.073.316c1.69.263 2.636.681 3.404 1.39.997.891 1.484 2.231 1.484 3.83C44 32.955 41.261 35 37.45 35m20.615-14.93l-2.916 7.99h5.753l-2.837-7.99zM62.979 34l-1.287-3.614h-7.384L53.02 34H50l6.856-18h2.286L66 34h-3.021zM230 0H111l1.62 2h117.36l.02-.025V0" fill="#FFFFFE"/></g></svg>
